svgs/thin/folder-heart.svg

<svg xmlns="http://www.w3.org/2000/svg" viewBox="0 0 512 512"><!-- Font Awesome Pro 6.0.0-alpha2 by @fontawesome - https://fontawesome.com License - https://fontawesome.com/license (Commercial License) --><path d="M464 96H272L217.375 41.375C211.371 35.371 203.234 32 194.746 32H48C21.492 32 0 53.492 0 80V432C0 458.508 21.492 480 48 480H464C490.508 480 512 458.508 512 432V144C512 117.492 490.508 96 464 96ZM496 432C496 449.672 481.672 464 464 464H48C30.328 464 16 449.672 16 432V80C16 62.328 30.328 48 48 48H188.117C196.602 48 204.742 51.371 210.742 57.371L265.371 112H464C481.672 112 496 126.328 496 144V432ZM258.562 213.328L255.875 216.109L253.188 213.312C228.344 187.641 188.469 184.859 162.438 207.047C147.844 219.516 139.281 237.016 138.344 256.328C137.438 275.453 144.438 294.234 157.594 307.875L240.625 393.469C244.719 397.672 250.188 399.984 255.969 400H256C261.812 400 267.25 397.688 271.438 393.438L354.406 307.875V307.859C367.562 294.219 374.562 275.438 373.625 256.297C372.656 236.984 364.094 219.484 349.469 207.047C323.562 184.844 283.562 187.594 258.562 213.328ZM342.906 296.75L259.969 382.266C258.875 383.391 257.469 384 256 384S253.156 383.391 252.094 382.312L169.094 296.766C159 286.297 153.625 271.828 154.344 257.094C155.062 242.234 161.625 228.781 172.812 219.219C181.594 211.719 192.531 208.047 203.656 208.047C217.312 208.047 231.188 213.609 241.688 224.422L255.875 239.172L270.031 224.453C289.25 204.813 319.531 202.484 339.063 219.219C350.313 228.781 356.906 242.234 357.656 257.094C358.375 271.828 353 286.266 342.906 296.75Z"/></svg>

<svg xmlns="http://www.w3.org/2000/svg" viewBox="0 0 512 512"><!--! Font Awesome Pro 6.3.0 by @fontawesome - https://fontawesome.com License - https://fontawesome.com/license (Commercial License) Copyright 2023 Fonticons, Inc. --><path d="M464 96h-192L217.4 41.38C211.4 35.37 203.2 32 194.7 32H48C21.49 32 0 53.49 0 80v352C0 458.5 21.49 480 48 480h416c26.51 0 48-21.49 48-48v-288C512 117.5 490.5 96 464 96zM496 432c0 17.67-14.33 32-32 32h-416c-17.67 0-32-14.33-32-32v-352c0-17.67 14.33-32 32-32h140.1c8.484 0 16.62 3.371 22.62 9.371L265.4 112H464c17.67 0 32 14.33 32 32V432zM258.6 213.3L255.9 216.1L253.2 213.3C228.3 187.6 188.5 184.9 162.4 207C147.8 219.5 139.3 237 138.3 256.3C137.4 275.5 144.4 294.2 157.6 307.9l83.03 85.59C244.7 397.7 250.2 399.1 255.1 400c5.812 0 11.28-2.312 15.47-6.562l82.97-85.56c13.16-13.64 20.16-32.44 19.22-51.58c-.9687-19.31-9.531-36.81-24.16-49.25C323.6 184.8 283.6 187.6 258.6 213.3zM342.9 296.8l-82.94 85.52C258.9 383.4 257.5 384 256 384s-2.844-.6094-3.906-1.688l-83-85.55C159 286.3 153.6 271.8 154.3 257.1c.7187-14.86 7.281-28.31 18.47-37.88c8.781-7.5 19.72-11.17 30.84-11.17c13.66 0 27.53 5.562 38.03 16.38l14.19 14.75l14.16-14.72c19.22-19.64 49.5-21.97 69.03-5.234c11.25 9.562 17.84 23.02 18.59 37.88C358.4 271.8 353 286.3 342.9 296.8z"/></svg>
